X:1
T:6 Lieder, Op.13
T:An die Entfernte
T:6 Lieder, Op.13
T:Josephine Lang
T:5. An die Entfernte
T:Nikolaus Lenau
T:Creative Commons copyright waiver (CC0 1.0 Universal)
T:Creative Commons copyright waiver (CC0 1.0 Universal)
C:Josephine Lang
Z:Nikolaus Lenau
Z:Creative Commons copyright waiver (CC0 1.0 Universal)
L:1/8
Q:1/4=110
M:2/4
K:F
V:1 treble nm="Stimme\nVoice"
V:1
"^Allegretto grazioso" z | z4 | z4 | z4 | z4 | A3/2 B/ c G | G A B2 | D D A G | (FE/D/) C2 | %9
w: |||||Die- se Ro- se|pflück' ich hier|in der frem- den|Fer- * * ne,|
 A3/2 B/ c G | G A B2 | d c B z/ A/ | A2 G z | G z/ G/ B G | F E D C | C F G A | A2 G2 | %17
w: lie- bes Her- ze|dir, ach dir|brächt' ich sie so|ger- ne!|doch, bis ich zu|dir mag zie- hen|vie- le wei- te|Mei- len,|
 G z/ G/ B A | G ^F (EF) | G z/ G/ B/A/ G/A/ | B2 c2 | d c/B/ A/G/ F/E/ | c2 F z | z4 | z4 | z4 | %26
w: ist die Ro- se|längst da- hin, *|denn die Ro- * sen *|ei- len,|denn die * Ro- * sen *|ei- len.||||
 z4 | A3/2 B/ c G | G A B2 | D3/2 D/ A G | FE/D/ C2 | A z/ B/ c G | G A B2 | d c B A | (A2 G) z | %35
w: |Nie soll wei- ter|sich in's Land|Lieb' von Lie- be|wa- * * gen,|als sich blü- hend|in der Hand|lässt die Ro- se|tra- gen,|
 G3/2 G/ B G | F E (DC) | C F G A | A2 G2 | G3/2 G/ B/A/ G/A/ | B3/2 B/ c2 | d c/B/ A/G/ F/E/ | %42
w: o- der als die|Nach- ti- gall *|Hal- me bringt zum|Nes- te,|o- der als * ihr *|süs- ser Schall|wan- dert * mit * dem *|
 c2 F2 | f d c/B/ D/E/ | F2 F2 | z4 | z4 | z4 | z4 | z4 | z4 | z4 | z4 | z4 | z4 |] %55
w: We- ste,|wan- dert mit * dem *|We- ste!|||||||||||

